packages/crayons-core/src/components/icon/icon-assets/icons/table-rows.svg

<?xml version="1.0" encoding="UTF-8"?>
<svg width="14px" height="14px" viewBox="0 0 14 14" version="1.1" xmlns="http://www.w3.org/2000/svg" xmlns:xlink="http://www.w3.org/1999/xlink">
    <!-- Generator: Sketch 52.6 (67491) - http://www.bohemiancoding.com/sketch -->
    <title>icon/table-rows</title>
    <desc>Created with Sketch.</desc>
    <g id="Icons-✅" stroke="none" stroke-width="1" fill="none" fill-rule="evenodd">
        <g id="Icons" transform="translate(-327.000000, -1069.000000)" fill="currentColor">
            <g id="icon/table-rows" transform="translate(327.000000, 1069.000000)">
                <g id="table-rows">
                    <path d="M13.3,-6.3504757e-14 C13.6865993,-6.37268016e-14 14,0.313400675 14,0.7 L14,2.94 C14,3.32659932 13.6865993,3.64 13.3,3.64 L0.7,3.64 C0.313400675,3.64 4.4408921e-16,3.32659932 0,2.94 L0,0.7 C0,0.313400675 0.313400675,-6.37268016e-14 0.7,-6.3504757e-14 L13.3,-6.3504757e-14 Z M12.6,2.24 L12.6,1.4 L1.4,1.4 L1.4,2.24 L12.6,2.24 Z M13.3,5.18 C13.6865993,5.18 14,5.49340068 14,5.88 L14,8.12 C14,8.50659932 13.6865993,8.82 13.3,8.82 L0.7,8.82 C0.313400675,8.82 0,8.50659932 0,8.12 L0,5.88 C0,5.49340068 0.313400675,5.18 0.7,5.18 L13.3,5.18 Z M12.6,7.42 L12.6,6.58 L1.4,6.58 L1.4,7.42 L12.6,7.42 Z M13.3,10.36 C13.4856515,10.36 13.6636993,10.4337498 13.7949747,10.5650253 C13.9262502,10.6963007 14,10.8743485 14,11.06 L14,13.3 C14,13.6865993 13.6865993,14 13.3,14 L0.7,14 C0.313400675,14 0,13.6865993 0,13.3 L0,11.06 C0,10.6734007 0.313400675,10.36 0.7,10.36 L13.3,10.36 Z M12.6,12.6 L12.6,11.76 L1.4,11.76 L1.4,12.6 L12.6,12.6 Z" id="Combined-Shape"></path>
                </g>
            </g>
        </g>
    </g>
</svg>

<svg viewBox="0 0 14 14"><path d="M13.3 0a.7.7 0 0 1 .7.7v2.24a.7.7 0 0 1-.7.7H.7a.7.7 0 0 1-.7-.7V.7A.7.7 0 0 1 .7 0h12.6zm-.7 2.24V1.4H1.4v.84h11.2zm.7 2.94a.7.7 0 0 1 .7.7v2.24a.7.7 0 0 1-.7.7H.7a.7.7 0 0 1-.7-.7V5.88a.7.7 0 0 1 .7-.7h12.6zm-.7 2.24v-.84H1.4v.84h11.2zm.7 2.94a.7.7 0 0 1 .7.7v2.24a.7.7 0 0 1-.7.7H.7a.7.7 0 0 1-.7-.7v-2.24a.7.7 0 0 1 .7-.7h12.6zm-.7 2.24v-.84H1.4v.84h11.2z" fill="currentColor" fill-rule="evenodd"/></svg>
